X:7718
T:Jack In Green. JC.233
M:6/8
L:1/8
Q:120
S:John Clare,Poet,Helpstone (1793-1864)
R:Jig
O:England4
A:Northamptonshire
N:
Z:P Headford
K:D
"Usually in 9/8"C2ED2F|E2GF2B|AFG FED|C2ED2F|E2cd2d|dAG FED||!
|:e2dc2B|AB"qu's"c/d/e2d|edd cBA|e2dc2B|ABcd2d|dAG FED:|]


